src/preferences/32/tools-check-spelling.svg

<svg width="32" height="32" version="1.1" xmlns="http://www.w3.org/2000/svg" xmlns:xlink="http://www.w3.org/1999/xlink">
 <defs>
  <linearGradient id="a-8" x1="7.937" x2="7.937" y1="15.081" y2="1.852" gradientTransform="matrix(1.8897 0 0 1.8897 .001 .015)" gradientUnits="userSpaceOnUse">
   <stop stop-color="#8e8d92" offset="0"/>
   <stop stop-color="#b3b2b6" offset="1"/>
  </linearGradient>
 </defs>
 <image x=".5" y="1" width="31" height="31" image-rendering="optimizeQuality" preserveAspectRatio="none" xlink:href="data:image/png;base64,iVBORw0KGgoAAAANSUhEUgAAAB8AAAAfCAYAAAAfrhY5AAAACXBIWXMAAA7DAAAOwwHHb6hkAAAA GXRFWHRTb2Z0d2FyZQB3d3cuaW5rc2NhcGUub3Jnm+48GgAAAPdJREFUSMftl7GuwjAMRY9NXlk6 8P9fycBCaWsGbJTmwQIkMORKVqWo6rm+zWCLmVFKRATI61VZlD0ASXkmIjsgAXtgAHZvwBdgAs7A bGbLQ7h3m4DR6++DnV+Ak9ccKaTsxQQcHJzehJaKNBNwdDNoFnXZ8Scl/t0RGJ13g2dxJ+pqw1ER Ub9cNTp+lsBeRFT9YGgAzg0MgARcG8M14DQE5wbuF+4r6vAO7/AO7/CqcGvMtYAbsDY0cOcFfGoM nwBTM1t9rr40MBBj9NnM1vjnc8zUleEbjnLbZZZsqK+RwGZxiM0lFa6O/qy6sfzWrlZzS/VL/U9X YfxzIl867ocAAAAASUVORK5CYII="/>
 <rect x="2" y="2" width="28" height="28" rx="7" ry="7" fill="url(#a-8)"/>
 <path d="m9 2c-3.878 0-7 3.122-7 7v14c0 3.878 3.122 7 7 7h14c3.878 0 7-3.122 7-7v-14c0-3.878-3.122-7-7-7zm0 0.5h14c3.601 0 6.5 2.899 6.5 6.5v14c0 3.601-2.899 6.5-6.5 6.5h-14a6.486 6.486 0 0 1-6.5-6.5v-14c0-3.601 2.899-6.5 6.5-6.5z" fill="#ffffff" opacity=".15"/>
 <path d="m15.074 7-6.5742 15h2.0361l1.7842-4.0928h7.3916l1.7285 4.0928h2.0596l-6.3779-15zm1.0195 1.8105c0.16988 0.513 1.0674 2.8401 2.6953 6.9756l0.33691 0.75879h-6.2139z" fill="#ffffff"/>
 <rect x="7" y="23" width="18" height="2" rx="1" ry="1" fill="#4bdb87" stroke-linecap="round" stroke-linejoin="round"/>
</svg>

<svg xmlns="http://www.w3.org/2000/svg" xmlns:xlink="http://www.w3.org/1999/xlink" width="32" height="32"><defs><linearGradient id="a" x1="7.937" x2="7.937" y1="15.081" y2="1.852" gradientTransform="translate(.001 .015)scale(1.8897)" gradientUnits="userSpaceOnUse"><stop offset="0" stop-color="#8e8d92"/><stop offset="1" stop-color="#b3b2b6"/></linearGradient></defs><image xlink:href="data:image/png;base64,iVBORw0KGgoAAAANSUhEUgAAAB8AAAAfCAYAAAAfrhY5AAAACXBIWXMAAA7DAAAOwwHHb6hkAAAA GXRFWHRTb2Z0d2FyZQB3d3cuaW5rc2NhcGUub3Jnm+48GgAAAPdJREFUSMftl7GuwjAMRY9NXlk6 8P9fycBCaWsGbJTmwQIkMORKVqWo6rm+zWCLmVFKRATI61VZlD0ASXkmIjsgAXtgAHZvwBdgAs7A bGbLQ7h3m4DR6++DnV+Ak9ccKaTsxQQcHJzehJaKNBNwdDNoFnXZ8Scl/t0RGJ13g2dxJ+pqw1ER Ub9cNTp+lsBeRFT9YGgAzg0MgARcG8M14DQE5wbuF+4r6vAO7/AO7/CqcGvMtYAbsDY0cOcFfGoM nwBTM1t9rr40MBBj9NnM1vjnc8zUleEbjnLbZZZsqK+RwGZxiM0lFa6O/qy6sfzWrlZzS/VL/U9X YfxzIl867ocAAAAASUVORK5CYII=" width="31" height="31" x=".5" y="1" image-rendering="optimizeQuality" preserveAspectRatio="none"/><rect width="28" height="28" x="2" y="2" fill="url(#a)" rx="7" ry="7"/><path fill="#fff" d="M9 2C5.122 2 2 5.122 2 9v14c0 3.878 3.122 7 7 7h14c3.878 0 7-3.122 7-7V9c0-3.878-3.122-7-7-7zm0 .5h14c3.601 0 6.5 2.899 6.5 6.5v14c0 3.601-2.899 6.5-6.5 6.5H9A6.486 6.486 0 0 1 2.5 23V9c0-3.601 2.899-6.5 6.5-6.5" opacity=".15"/><path fill="#fff" d="M15.074 7 8.5 22h2.036l1.784-4.093h7.392L21.44 22h2.06L17.122 7zm1.02 1.81q.254.77 2.695 6.976l.337.759h-6.214z"/><rect width="18" height="2" x="7" y="23" fill="#4bdb87" rx="1" ry="1"/></svg>
